icon/lg/bluetooth.svg

<?xml version="1.0" encoding="UTF-8" standalone="no"?>
<svg viewBox="0 0 256 348" version="1.1" xmlns="http://www.w3.org/2000/svg" xmlns:xlink="http://www.w3.org/1999/xlink" preserveAspectRatio="xMidYMid" height="1em" width="1em">
  <g>
    <path d="M142.029889,85.6873567 L170.723389,114.380856 L142.047492,143.050885 L142.029889,85.6873567 L142.029889,85.6873567 L142.029889,85.6873567 Z M142.029889,261.333822 L170.723389,232.646191 L142.047492,203.970294 L142.029889,261.333822 L142.029889,261.333822 L142.029889,261.333822 Z M111.394151,173.51059 L49.3657284,111.323737 L67.3446411,93.3506922 L116.757312,142.786834 L116.757312,24.3161273 L206.622536,114.175484 L147.28743,173.51059 L206.634272,232.863299 L116.76318,322.722655 L116.76318,204.24608 L67.3387733,253.68809 L49.3598606,235.70331 L111.394151,173.51059 L111.394151,173.51059 L111.394151,173.51059 Z M128.011736,347.04465 C203.788393,347.04465 256,311.04575 256,173.516457 C256,35.993032 203.788393,-2.84217094e-14 128.011736,-2.84217094e-14 C52.2409462,-2.84217094e-14 2.84217094e-14,35.9988998 2.84217094e-14,173.516457 C7.57512692e-15,311.04575 52.2350784,347.04465 128.011736,347.04465 L128.011736,347.04465 L128.011736,347.04465 Z" fill="#0060A9"/>
  </g>
</svg>

<svg width="256" height="348" xmlns="http://www.w3.org/2000/svg" preserveAspectRatio="xMidYMid"><path d="m142.03 85.687 28.693 28.694-28.676 28.67-.017-57.364Zm0 175.647 28.693-28.688-28.676-28.676-.017 57.364Zm-30.636-87.823-62.028-62.187L67.345 93.35l49.412 49.436V24.317l89.866 89.858-59.336 59.336 59.347 59.352-89.87 89.86V204.246l-49.425 49.442-17.98-17.985 62.035-62.192Zm16.618 173.534c75.776 0 127.988-36 127.988-173.529C256 35.993 203.788 0 128.012 0 52.24 0 0 35.999 0 173.516c0 137.53 52.235 173.529 128.012 173.529Z" fill="#0060A9"/></svg>
